X:1
T:Title
%%score { ( 1 3 ) | 2 }
L:1/8
M:3/4
K:Bb
V:1 treble nm="Grand Piano"
V:3 treble 
V:2 bass 
V:1
 z2 z2 z[Q:1/4=100] [DF] | [DF][DB] [DB]3 [Dc] | [EB][EA] [EA]3 F | Fc c3 d | %4
[M:5/8] [Ec][DB] [DB]3 |[M:1/8] [DF] |[M:3/4] [DF][Fd] [Fd]3 [_Ad] | [Gd][Gc] c2 BG | GF =EF GA | %9
[M:5/8] [DB]- [DB]3 z |[M:1/8] [DB] |[M:3/4] [DB]>[CA] [CA]3 [Ec] | [Ec]>[DB] [DB]3 [Fd] | %13
 d>c c3 e |[M:5/8] e>[Fd] [Fd]3 |[M:1/8] [Fd] |[M:3/4] [^Fd]>A A3 c | [Dc]>B B3 G | %18
 GF =EF [EG][_EA] |[M:5/8] [DB]- [DB]3 z |] %20
V:2
 z2 z2 z [B,,F,] | [B,,F,][B,,F,] [B,,F,]3 [B,,F,] | [C,F,][C,F,] [C,F,]3 [F,A,E] | %3
 [F,A,E][F,A,E] [F,A,E]3 [F,A,F] |[M:5/8] [B,,B,][B,,B,] [B,,B,]3 |[M:1/8] [B,,A,] | %6
[M:3/4] [B,,B,][B,,B,] [B,,B,]3 [B,,B,] | [E,B,][E,B,] [E,B,]3 [E,B,E] | %8
 [F,B,D][F,B,D] [F,B,_D][F,B,=D] [F,CE][F,CE] |[M:5/8] [B,,B,]- [B,,B,]3 z |[M:1/8] [B,,F,] | %11
[M:3/4] [F,,F,]>[F,,F,] [F,,F,]3 [F,A,] | [B,,B,]>[B,,B,] [B,,B,]3 [B,,B,] | %13
 [F,B,F]>[F,A,F] [F,A,F]3 [A,CF] |[M:5/8] [B,G]>[K:bass][B,,B,] [B,,B,]3 |[M:1/8] [B,,B,] | %16
[M:3/4] [D,A,]>[D,^F,D] [D,F,D]3 [D,F,D] | [G,,G,]>[G,D] [G,D]3 [E,B,E] | %18
 [F,B,D][F,B,D] [G,B,_D][F,B,=D] [C,C][F,C] |[M:5/8] [B,,B,]- [B,,B,]3 z |] %20
V:3
 x6 | x6 | x6 | x6 |[M:5/8] x5 |[M:1/8] x |[M:3/4] x6 | z2 G4 | x6 |[M:5/8] x5 |[M:1/8] x | %11
[M:3/4] x6 | x6 | x6 |[M:5/8] x5 |[M:1/8] x |[M:3/4] x6 | x6 | x6 |[M:5/8] x5 |] %20

